X:3370
L:1/8
M:4/4
K:D
 DF | A2 A>B A2 G/F/E/D/ | B2 B>B B>c dB | BA FA AF ED | E2 E>F E2 DF | A2 A>B A2 G/F/E/D/ | 
 B2 B>c B>c dB | BA FA AG FE | D2 d>d d2 || AB/c/ | dA/A/ AA/A/ eA/A/ AA/A/ | dA eA fA/A/ AA/A/ | 
 gA/A/ AA/A/ fA/A/ AA/A/ | e/f/e/d/ c/d/c/B/ A/B/A/G/ F/E/D/F/ | A2 A>B A2 G/F/E/D/ | 
 B2 B2 B>c d2 | BA FA AG FE | D2 d>d d2 ||

